X:156
T:Style of the last Century, The
T:An seann stoile
R:Slow Air
S:Simon Fraser Collection
N:No.186
O:Scottish
M:C
L:1/8
Q:1/4=100
K:D Minor
C|A,<D D>A, F>A, D<A|F>D C<A, F<A, C>B,|A,<D D>A, F>A, D<F|
C<A, A,>^C D2 D:|f|c>A A<c F<F c>A|f>ed>c A<cd<f|c>A A<c F<F c>A|
C<A, A,>^C D2 Df|c>A A<c F<F c>A|f>ed>c (A/c/)d/e/ f<d|c>A E<A F<AE<A|
C<A, A,>^C D2D||

